X: 1
T: the Gray Days of Autumn
T: Written on yet aother cloudy day
C: Larry Unger 1988
%D:1988
R: polka, march
S: Fiddle Hell Online 2021-05-31
Z: 2021 John Chambers <jc:trillian.mit.edu>
N: This is the original form, which doesn't have the rhythms quite right for repeats.
M: 4/4
L: 1/8
K: D	% and Bm
AB | "D"d2f2 e2f2 | defd edBA | d2f2 e2f2 | "G"g2B2 B2AB | "D"d2f2 e2f2 |
"D"defd edBA | "G"BABc d2BA | "A"F2A2 A2z2 :: "Bm"f2B2 f2B2 | fggg fed2 |
"Bm"f2B2 f2B2 | "A"edcd e4 | "Bm"f2B2 f2B2 | fggg fed2 | "G"BABc d2BA | "A"F2A2 A2z2 :|
